X:1
T:Title
%%score { ( 1 3 ) | ( 2 4 ) }
L:1/8
M:4/4
K:Eb
V:1 treble nm="Grand Piano"
V:3 treble 
V:2 bass 
V:4 bass 
V:1
 z4 z2[Q:1/4=92] B>B | [Ge]>[Gd] [Ge]>[Gd] [Ge]>[Gd] [Gc]>[GB] | [Ad]2 [Ad]2 [Ad]2 [Ac]>[AB] | %3
 [Ad]>[Ac] [Ad]>[Ac] [Ad]>[Ac] [GB]>[FA] | [EG]2 [_Gc]2 [=GB]2 [GB]>[GB] | %5
 [Ge]>[Gd] [Ge]>[Gd] [Ge]>[DGd] [EGc]>[EGB] | d>c d>c d>c B>c | %7
 [_Gd]>[Gc] [Gd]>[Gc] [Gd]>[Gc] [=GB]>[Gc] |[M:7/8] d- d3 z z2 |[M:1/4] (3[GB][EG][GB] | %10
[M:4/4] z2 [GB]4 z2 | z2 [FA]4 z2 | [Ad]>[Ac] [Ad]>[Ac] [Ad]>[Ac] [GB]>[FA] | %13
 [EG]2 [_Gc]2 [=GB]2 (3[GB][EG][GB] | z2 [GB]4 z2 | z2 [FA]4 z2 | %16
 [CEF]>[CEc] [CEB]>[CEA] [B,EG]>[B,GB] [B,FA]>[A,B,D] |[M:3/4] [A,B,F]4 [G,B,E]2 |] %18
V:2
 z4 z2 B,>B, | [E,B,]>[E,B,] [B,,B,]>[B,,B,] [E,B,]>[E,B,] [B,,B,]>[B,,B,] | %2
 [F,B,]2 [B,,B,]2 [F,B,]2 [B,,B,]>[B,,B,] | %3
 [F,B,]>[F,B,] [B,,B,]>[B,,B,] [F,B,]>[F,B,] [B,,B,]>[B,,B,] | %4
 [E,B,]2 [E,=A,]2 [E,B,]2 [E,B,]>[E,B,] | [C,C]>[C,C] [C,C]>[C,C] [C,C]>C, C,>C, | %6
 [G,B,G]>[G,B,G] [G,B,G]>[G,B,G] [G,B,G]>[G,B,G] [G,B,G]>[G,B,G] | %7
 [D,=A,]>[D,A,] [D,A,]>[D,A,] [D,A,]>[D,A,] [G,B,]>[G,B,] |[M:7/8] B,- B,3 z z2 | %9
[M:1/4] (3[E,E][E,B,][E,E] |[M:4/4] [E,B,]2 [E,B,]2 z2 (3[E,B,][E,B,][E,B,] | %11
 z z/ D/ B,,2 B,,2 [B,,B,]>[B,,B,] | [F,B,]>[F,B,] [B,,B,]>[B,,B,] [F,B,]>[F,B,] [B,,B,]>[B,,B,] | %13
 [E,B,]2 [E,=A,]2 [E,B,]2 (3[E,B,][E,B,][E,B,] | [E,B,]2 [E,B,]2 z2 (3[E,B,][E,B,][E,B,] | %15
 [B,,B,]2 z2 z4 | A,,>A,, A,,>A,, B,,>B,, B,,>B,, |[M:3/4] B,,>B,, C,>D, E,2 |] %18
V:3
 x8 | x8 | x8 | x8 | x8 | x8 | x8 | x8 |[M:7/8] A- A3- [DAB]3 |[M:1/4] x2 | %10
[M:4/4] [Ge]>[EG] z2 [E,B,]2 (3[Ge][Ge][Ge] | [Fd]>F D2 D2 [FA]>[GB] | x8 | x8 | %14
 [Ge]>[EG] z2 [E,B,]2 (3[Ge][Ge][Ge] | [Fd]>F D2 D2 [_DEG]>[DEG] | x8 |[M:3/4] x6 |] %18
V:4
 x8 | x8 | x8 | x8 | x8 | x8 | x8 | x8 |[M:7/8] F,-F,-F,- F,- F,3 |[M:1/4] x2 |[M:4/4] x8 | %11
 [B,,B,]2 z2 z4 | x8 | x8 | x8 | z z/ D/ B,,2 B,,2 E,>E, | x8 |[M:3/4] x6 |] %18

